packages/foundations/assets/icons/functional/images/date & time/calendar_24.svg

<svg width="24" height="24" viewBox="0 0 24 24" fill="none" xmlns="http://www.w3.org/2000/svg">
<g clip-path="url(#clip0_185_659)">
<path fill-rule="evenodd" clip-rule="evenodd" d="M15.0118 4C15.647 4 16 4.49226 16 4.98823V6H17.5058C18.8941 6 20 7.10586 20 8.49416V17.5058C20 18.8941 18.8941 20 17.5058 20H6.49416C5.10586 20 4 18.8941 4 17.5058V8.49416C4 7.1294 5.10586 6 6.49416 6H8V4.98823C8 4.49416 8.37203 4 8.99624 4C9.61916 4 10 4.49216 10 4.98823V6H14V4.98823C14 4.49416 14.3059 4 15.0118 4ZM18 12.0235H6V17.5058C6 17.7882 6.21181 18 6.49416 18H17.5058C17.7882 18 18 17.7882 18 17.5058V12.0235ZM17.5058 8H6.49416C6.21181 8 6 8.21181 6 8.49416V10H18V8.49416C18 8.21181 17.7882 8 17.5058 8ZM6.98823 15.0036C6.98823 14.4514 7.43971 14 7.99178 14C8.54116 14 8.98823 14.4471 8.98823 15.0036C8.98823 15.5574 8.54556 16 7.99188 16C7.4353 16 6.98823 15.5529 6.98823 15.0036ZM10.9882 15.0037C10.9882 14.4471 11.4588 14 12.0082 14C12.5602 14 13.0118 14.4514 13.0118 15.0036C13.0118 15.5529 12.5647 16 12.0082 16C11.4547 16 10.9882 15.5576 10.9882 15.0037ZM15.0118 15.0036C15.0118 14.4471 15.4588 14 16.0081 14C16.5603 14 17.0118 14.4515 17.0118 15.0036C17.0118 15.5529 16.5647 16 16.0082 16C15.4544 16 15.0118 15.5573 15.0118 15.0036Z" fill="#1A1C1F"/>
</g>
<defs>
<clipPath id="clip0_185_659">
<rect width="24" height="24" fill="white"/>
</clipPath>
</defs>
</svg>

<svg xmlns="http://www.w3.org/2000/svg" width="24" height="24" fill="none"><g clip-path="url(#a)"><path fill="#1A1C1F" fill-rule="evenodd" d="M15.012 4c.635 0 .988.492.988.988V6h1.506A2.48 2.48 0 0 1 20 8.494v9.012A2.48 2.48 0 0 1 17.506 20H6.494A2.48 2.48 0 0 1 4 17.506V8.494A2.495 2.495 0 0 1 6.494 6H8V4.988C8 4.494 8.372 4 8.996 4A.983.983 0 0 1 10 4.988V6h4V4.988c0-.494.306-.988 1.012-.988M18 12.024H6v5.482c0 .282.212.494.494.494h11.012a.483.483 0 0 0 .494-.494zM17.506 8H6.494A.483.483 0 0 0 6 8.494V10h12V8.494A.483.483 0 0 0 17.506 8M6.988 15.004a1 1 0 1 1 2 0 .99.99 0 0 1-.996.996 1 1 0 0 1-1.004-.996m4 0c0-.557.47-1.004 1.02-1.004a1 1 0 1 1 0 2c-.553 0-1.02-.442-1.02-.996m4.024 0a1 1 0 1 1 2 0 1 1 0 0 1-1.004.996.99.99 0 0 1-.996-.996" clip-rule="evenodd"/></g><defs><clipPath id="a"><path fill="#fff" d="M0 0h24v24H0z"/></clipPath></defs></svg>
